public/static/favicons/safari-pinned-tab.svg

<svg width="84" height="84" viewBox="0 0 84 84" fill="none" xmlns="http://www.w3.org/2000/svg">
<path d="M41.8128 52.3117L46.5669 47.5576L41.8122 52.311L51.3222 42.8023C55.4995 46.9797 55.4837 53.7677 51.3222 57.945L41.8276 67.4383C37.6503 63.2768 37.6506 56.4884 41.8122 52.311C41.0629 53.0636 40.4487 53.9008 39.9694 54.7921C40.4488 53.901 41.0633 53.064 41.8128 52.3117Z" fill="#73DFF9"/>
<path d="M41.8419 27.233L29.5306 39.5431C25.3532 43.7205 25.369 50.5088 29.5306 54.6704L41.8419 42.3765C46.0034 38.1833 46.0193 31.3946 41.8419 27.233Z" fill="#73DFF9"/>
<path fill-rule="evenodd" clip-rule="evenodd" d="M42.0013 0.336815L41.9975 0.332929L17.5799 24.7506C9.75458 32.5759 6.22946 43.8763 7.89618 54.5267C9.00456 61.652 12.4297 68.4022 17.5466 73.5357L17.6216 73.6108C19.1716 75.1525 20.8633 76.5608 22.68 77.7858C30.2553 82.9027 39.7391 84.7612 48.5894 83.0528C52.028 82.3874 55.3305 81.1792 58.3805 79.5213C64.201 76.3624 69.1062 71.5648 72.2855 65.7777C76.3677 58.3412 77.5387 49.5119 75.64 41.3316C74.2002 35.0662 70.5871 28.9387 66.0622 24.3977L42.0178 0.320381L42.0013 0.336815ZM42.0008 15.4452L41.9975 15.4418L25.1052 32.3258C21.0217 36.426 18.5049 42.0429 18.1965 47.8681C17.8382 54.4684 20.33 61.1435 25.0302 65.9104C25.051 65.9354 25.0739 65.9583 25.0969 65.9812C25.1198 66.0042 25.1427 66.0271 25.1636 66.0521C29.8387 70.7023 36.5056 73.2857 43.1475 72.9691C47.5503 72.7601 51.8599 71.2569 55.5123 68.7496C51.8619 71.2494 47.5572 72.7495 43.1546 72.9608C36.5249 73.2773 29.8472 70.6818 25.1796 66.0299C25.1331 65.999 25.087 65.9528 25.0407 65.9065L25.0373 65.9032C20.3538 61.1405 17.8549 54.4635 18.203 47.8654C18.5194 42.0269 21.0351 36.4097 25.1331 32.3116L42.0008 15.4452ZM42.0014 15.4458L25.1344 32.3128C21.0366 36.4106 18.5211 42.0274 18.2047 47.8655C17.8566 54.4631 20.3554 61.1397 25.0386 65.902L25.0417 65.9051C25.0882 65.9515 25.1343 65.9977 25.1806 66.0285C29.8479 70.6801 36.5253 73.2755 43.1546 72.9591C48.0329 72.7249 52.7912 70.9082 56.6721 67.9024C59.0771 66.0348 61.1438 63.709 62.6898 61.0185C66.3483 54.6433 66.7983 46.5681 63.9482 39.8428C62.7565 37.0344 61.0064 34.4759 58.8314 32.3175L58.8564 32.3008L42.0014 15.4458Z" fill="#73DFF9"/>
</svg>

<svg xmlns="http://www.w3.org/2000/svg" width="84" height="84" fill="none"><path fill="#73DFF9" d="m41.813 52.312 4.754-4.754-4.755 4.753 9.51-9.509c4.177 4.178 4.162 10.966 0 15.143l-9.494 9.493c-4.178-4.161-4.177-10.95-.016-15.127M41.842 27.233 29.53 39.543c-4.178 4.178-4.162 10.966 0 15.127l12.31-12.294c4.162-4.193 4.178-10.981 0-15.143"></path><path fill="#73DFF9" fill-rule="evenodd" d="m42.001.337-.003-.004L17.58 24.75C9.755 32.576 6.23 43.876 7.896 54.527c1.109 7.125 4.534 13.875 9.65 19.009l.076.075a34.712 34.712 0 0 0 5.058 4.175c7.575 5.117 17.06 6.975 25.91 5.267a34.093 34.093 0 0 0 9.79-3.532c5.821-3.159 10.726-7.956 13.905-13.743 4.083-7.437 5.254-16.266 3.355-24.446-1.44-6.266-5.053-12.393-9.578-16.934L42.018.32 42 .337m0 15.108-.003-.003-16.893 16.884c-4.083 4.1-6.6 9.717-6.908 15.542-.359 6.6 2.133 13.276 6.833 18.042.021.025.044.048.067.071.023.023.046.046.067.071 4.675 4.65 11.342 7.234 17.984 6.917 4.402-.209 8.712-1.712 12.364-4.22-3.65 2.5-7.955 4-12.357 4.212-6.63.316-13.308-2.28-17.975-6.931-.047-.031-.093-.077-.14-.124l-.003-.003c-4.683-4.763-7.182-11.44-6.834-18.038.316-5.838 2.832-11.455 6.93-15.553l16.868-16.867m0 0L25.134 32.314c-4.097 4.098-6.613 9.714-6.93 15.552-.347 6.598 2.151 13.275 6.835 18.037l.003.003c.046.046.092.093.139.123 4.667 4.652 11.344 7.247 17.974 6.931 4.878-.234 9.636-2.05 13.517-5.057a23.673 23.673 0 0 0 6.018-6.883c3.658-6.376 4.108-14.45 1.258-21.176a23.642 23.642 0 0 0-5.117-7.526l.025-.016-16.855-16.855Z" clip-rule="evenodd"></path></svg>
